X:43
T:Jenny Pluck Pears.
K:Cmaj clef=treble
M:4/4
M:6/8
L:1/8
P:A
[|
%Error : Guitar chord name not properly closed
dm"D2A "c"E>cd | "dm"f>BA "Am"C2E | \"
"Dm"d2d "Bb"e>fg 
%Error : Bar 1 is 5/4 not 6/8
| "Dm"f>ed "Am"c2A |
"F"a2a "C"g2e | "Dm"f>ed "Am"c2A | \
"G"B>cd "Am"c>Bc | "Dm"d3 d3 :|
M:3/4
L:1/4
"Dm"dag | "C"f2 e | "Dm"dag | "C"f2 e | \
"Dm"dag | "F"f>e d | "C"c>Bc | "Dm"d3 |]

